!!!OTL: Hab ich schon ein scheeles Aug (3-83), S. 231
!!!id: P1056
**kern
*clefG2
*k[b-]
*B-:
{16b-
=1
16b-
8f
8f
8b-
8a
=2
8g
8g
4cc
=3
8.a
16g
8f
8f
=4
4b-}
8r
=5
{8f
=6
8f
8f
8b-
8a
=7
8g
8g
4cc
=8
8.a
16g
8f
8f
=9
4b-}
8r
=10
{16cc
16cc
=11
8cc
8cc
8ff
8ff
=12
8.dd
16cc
8b-
8b-
=13
8dd
8cc
4b-}
=14
{8f
8f
8b-
8a
=15
8g
8g
8cc
8cc
=16
8.dd
16dd
8cc
8cc
=17
2b-}
==
*-
!!!minrhy: 16
!!!meters: 2/4 ]  ZZ[4
!!!cut: Hab ich schon ein scheeles Aug (3-83), S. 231
!!!reg: Lothringen
!!!trd: PINCK, Louis: Verklingende Weisen, Bd3, Metz 1933
!!!rhy1:   X_X_X_X_  X_X_X__  X_.XX_X_  X__0_
!!!rhy2: X_  X_X_X_X_  X_X_X__  X_.XX_X_  X__0_
!!!key: P1056  16 Bb 2/4 ]  ZZ[4
!!!mod: SECHSTONSKALA DUR ?]  AMBITUS[8
!!!kad: 1111
!!!akz: -5-6-71_-5-6-71_233_-5-631_
!!!fot: 'a__av_b__aw_
!!!for: 'a__av_b__c__
!!!fok: '~a_~a_^d_Ma_
!! PHRAS[GEMISCHTTAKTIG]
!!!fkt: ???
!! LOTH VKL
!! PR[37] 2K[5] 2G[17] 3K[7] 3G[1] 4A[0] 4Ü[0] 5A[2] 6K[0] 6G[0]
!! 7K[0] 7G[0] 8A[0] MEHR[0] SI[33] ABS[83] SR[22] SP[11]
!! ST[16] 2k[6] 2g[17] 3k[1] 3g[1] 4d[1] 4ü[0] 5d[1] 6k[2] 6g[0]
!! 7k[0] 7g[0] 8d[0] mehr[0] si[30] dm[+3] sr[23] sp[7]
!! 1F[12] 2F[44] 3F[32] 4F[2] LF[0] 2P[8] 3P[2] 4P[0] TRI[0] DF[6] AB[91]
!! TF[1] U3K[0] U3[1] U4[4] U4Ü[0] U5[23] U6K[0] U6[14] U7K[5] U7[6]
!! N1[21] N2K[0] N2[12] N3K[0] N3[8] N4[2] N4Ü[0] N5[2] N6K[0] N6[0]
!!!n7k: 0] N7[0] O1[0] O2K[0] O2[0] O3K[0] O3[0] HÖ[0
